X:1
T:[ID 2-25]
T:[ID 2-25]
T:Bezeichnung standardisiert: Menuet de Roise [1]; Menuet Roise Viol. Secondo In dieser Quelle auch als: Menuet de Roise In dieser Quelle auch als: Menuet Roise In dieser Quelle auch als: Menuetto de Rosise
T:Urheber unbekannt Erstbeleg: 1792 (Datum in der schriftlichen Quelle) Datum in der hier transkribierten schriftlichen Quelle: vermutlich um 1800
C:Urheber unbekannt
C:Erstbeleg: 1792 (Datum in der schriftlichen Quelle)
C:Datum in der hier transkribierten schriftlichen Quelle: vermutlich um 1800
%%score 1 2
L:1/8
M:3/4
K:A
V:1 treble nm="Viol. Primo"
V:2 treble nm="Viol. Sekondo"
V:1
 e2 c2 d2 | e3 f e2 | d2 B2 Bc | d3"^1)" e B2 | A2 aggf | feed c2 | e2 aedc | B6 :: e2 a2 ef | %9
 _g4 f2 | f2 f2"^1)" f x | e3"^1)" dcd | e2 e2 cd |"^1)" e2 fg a2 | (3fed c2 B2 | A6 :| %16
V:2
 !fermata!c2 A2 B2 | c3 d c2 | B2 G2 A2 | B3 c B2 | A2 (fe)(ed) | (dc)(cB) A2 | c2 ccBA | G6 :: %8
 c2 c2 cd | e4 e2 | d2 d2 df | c2 cBAB | c2 c2 AB | c2 dc c2 | (3dcB A2 G2 | C6 :| %16

